X:1
T:Never Turn Aside
T:Never Turn Aside
T:John Marion Dye, 1904
T:Mrs. J. M. Hunter
T:Public Domain Courtesy of the Cyber Hymnal™
C:John Marion Dye, 1904
Z:Public Domain
Z:Courtesy of the Cyber Hymnal™
%%score ( 1 2 ) 3
L:1/8
Q:1/4=100
M:6/8
K:E
V:1 treble 
V:2 treble 
V:3 bass 
V:1
 E | [EG]2 [EF] E2 [EG] | [EB]2 [EB] [EG]2 E | [EG] [EG]2 [FA]2 [EG] | [DF]3- [DF]2 E | %5
w: 1.~From|du- ty’s straight and|nar- row way, O|ne- ver turn a-|side; * It|
w: 2.~Tho’|com- rades jeer with|sil- ly talk, O|ne- ver turn a-|side; * In|
w: 3.~Some-|one is step- ping|in your track, O|ne- ver turn a-|side; * From|
w: 4.~Life’s|pros- pects fair, why|should you blight? O|ne- ver turn a-|side; * Take|
 [EG]2 [EF] E2 [EG] | [GB]2 [GB] [EG]2 E | [EG] [EG]2 [DF]2 [DF] | E3- E2 ||"^Refrain" [GB] | %10
w: is the path to|end- less day, O|ne- ver turn a-|side. *||
w: wis- dom’s path it|pays to walk, O|ne- ver turn a-|side. *|O|
w: death and ru- in|keep him back, O|ne- ver turn a-|side. *||
w: Christ to be your|guide and light, O|ne- ver turn a-|side. *||
 [Ge] [Ge]2 [Ge]2 [Ac] | B3- [GB]2 [EG] | [EA] [EA]2 [Ac]2 [Ac] | B3- [GB]2 [GB] | %14
w: ||||
w: ne- ver, ne- ver|turn side, O|ne- ver, ne- ver|turn side; Be|
w: ||||
w: ||||
 [Ge]2 [Ad] [Be]2 [Ac] | ([GB][Ac])[GB] [EG]2 E | [EG] [EG]2 [DF]2 [DF] | E3- E2 |] %18
w: ||||
w: firm for God and|truth * and right, And|ne- ver turn a-|side. *|
w: ||||
w: ||||
V:2
 E | x3 E2 x | x5 E | x6 | x5 E | x3 E2 x | x5 E | x6 | E3- E2 || x | x6 | G2 G x3 | x6 | G2 G x3 | %14
 x6 | x5 E | x6 | E3- E2 |] %18
V:3
 [E,G,] | [E,B,]2 [E,A,] [E,G,]2 [E,B,] | [E,G,]2 [E,G,] [E,G,]2 [E,G,] | %3
w: ~|~ ~ ~ ~|~ ~ ~ ~|
 [E,B,] [E,B,]2 [D,B,]2 [E,B,] | [B,,B,]3- [B,,B,]2 [E,G,] | [E,B,]2 [E,A,] [E,G,]2 [E,B,] | %6
w: ~ ~ ~ ~|~ * ~|~ ~ ~ ~|
 [E,E]2 [E,E] [E,B,]2 [E,G,] | [B,,B,] [B,,B,]2 [B,,A,]2 [B,,A,] | [E,G,]3- [E,G,]2 || [E,B,] | %10
w: ~ ~ ~ ~|~ ~ ~ ~|~ *|~|
 [E,B,] [E,B,]2 [E,B,]2 [E,E] | [E,E]2 [E,E] [E,E]2 [E,B,] | [A,,C] [A,,C]2 [A,,E]2 [A,,E] | %13
w: ~ ~ turn a-|side, ~ ~ ~|~ ~ turn a-|
 [E,E]2 [E,E] [E,E]2 [E,E] | [E,B,]2 [F,B,] [G,B,]2 [A,E] | [E,E]2 [E,E] [E,B,]2 [E,G,] | %16
w: side, * * *|||
 [B,,B,] [B,,B,]2 [B,,A,]2 [B,,A,] | [E,G,]3- [E,G,]2 |] %18
w: ||

